assets/Sun behind large cloud/Flat/sun_behind_large_cloud_flat.svg

<svg width="32" height="32" viewBox="0 0 32 32" fill="none" xmlns="http://www.w3.org/2000/svg">
<path d="M14.72 8.43066C10.1635 8.43066 6.42051 11.9134 6.00776 16.3622C3.09141 17.3759 1 20.1463 1 23.41C1 25.1633 1.61098 26.7772 2.62056 28.0539C3.99216 29.8474 6.14875 31 8.58 31H21.27C24.4212 31 27.2042 29.4481 28.9045 27.0741C31.9154 23.1201 31.5929 17.4399 27.9384 13.8742C25.9919 11.9771 23.4669 11.0319 20.949 11.0357C19.3635 9.42865 17.1577 8.43066 14.72 8.43066Z" fill="#B4ACBC"/>
<path d="M8.0299 4.92501C8.6299 3.68501 10.3899 3.69502 10.9799 4.93502C11.1999 5.40502 11.7699 5.58502 12.2199 5.34502L12.4999 5.19501C13.5999 4.60501 14.8899 5.55502 14.6599 6.77502L14.5999 7.08502C14.4999 7.59502 14.8499 8.07502 15.3599 8.14502L15.6799 8.18502C16.9199 8.35502 17.4099 9.87502 16.4999 10.735L16.2699 10.955C15.8899 11.305 15.8899 11.905 16.2699 12.265L16.4999 12.485C17.3999 13.345 16.8999 14.865 15.6599 15.025L15.3399 15.065C14.8299 15.135 14.4799 15.615 14.5699 16.115L14.6299 16.425C14.8499 17.655 13.5499 18.595 12.4599 17.995L12.1799 17.845C11.7299 17.595 11.1599 17.775 10.9399 18.245C10.3399 19.485 8.5799 19.475 7.9899 18.235C7.7699 17.765 7.1999 17.585 6.7499 17.825L6.4699 17.975C5.3699 18.565 4.0799 17.615 4.3099 16.395L4.36991 16.085C4.46991 15.575 4.1199 15.095 3.6099 15.025L3.2899 14.985C2.0499 14.815 1.5599 13.295 2.4699 12.435L2.6999 12.215C3.0799 11.865 3.0799 11.265 2.6999 10.905L2.4699 10.685C1.5699 9.82502 2.0699 8.30502 3.3099 8.14502L3.6299 8.10501C4.1399 8.03501 4.4899 7.55502 4.3999 7.05502L4.3399 6.74502C4.1199 5.51502 5.41991 4.57501 6.50991 5.17501L6.7899 5.32502C7.2399 5.57502 7.8099 5.38501 8.0299 4.92501Z" fill="#FF822D"/>
<path d="M9.46008 17.4651C12.7075 17.4651 15.3401 14.8325 15.3401 11.5851C15.3401 8.33764 12.7075 5.70508 9.46008 5.70508C6.21264 5.70508 3.58008 8.33764 3.58008 11.5851C3.58008 14.8325 6.21264 17.4651 9.46008 17.4651Z" fill="#F9C23C"/>
<path d="M20.5254 12.0463C19.1055 10.4421 17.0308 9.43066 14.72 9.43066C10.4592 9.43066 7.00154 12.869 6.97019 17.1223C4.11935 17.7943 2 20.3528 2 23.41C2 24.93 2.53 26.33 3.41 27.44C4.6 29 6.47 30 8.58 30H21.27C24.09 30 26.58 28.61 28.1 26.48C30.82 22.92 30.53 17.8 27.24 14.59C25.3784 12.7756 22.9311 11.9292 20.5254 12.0463Z" fill="#F3EEF8"/>
</svg>

<svg xmlns="http://www.w3.org/2000/svg" width="32" height="32" fill="none"><path fill="#B4ACBC" d="M14.72 8.43a8.751 8.751 0 0 0-8.712 7.932A7.459 7.459 0 0 0 1 23.41a7.47 7.47 0 0 0 1.62 4.644A7.479 7.479 0 0 0 8.58 31h12.69a9.371 9.371 0 0 0 7.634-3.926c3.011-3.954 2.689-9.634-.966-13.2a9.967 9.967 0 0 0-6.989-2.838A8.726 8.726 0 0 0 14.72 8.43Z"/><path fill="#FF822D" d="M8.03 4.925c.6-1.24 2.36-1.23 2.95.01.22.47.79.65 1.24.41l.28-.15c1.1-.59 2.39.36 2.16 1.58l-.06.31c-.1.51.25.99.76 1.06l.32.04c1.24.17 1.73 1.69.82 2.55l-.23.22c-.38.35-.38.95 0 1.31l.23.22c.9.86.4 2.38-.84 2.54l-.32.04c-.51.07-.86.55-.77 1.05l.06.31c.22 1.23-1.08 2.17-2.17 1.57l-.28-.15a.89.89 0 0 0-1.24.4c-.6 1.24-2.36 1.23-2.95-.01a.902.902 0 0 0-1.24-.41l-.28.15c-1.1.59-2.39-.36-2.16-1.58l.06-.31c.1-.51-.25-.99-.76-1.06l-.32-.04c-1.24-.17-1.73-1.69-.82-2.55l.23-.22c.38-.35.38-.95 0-1.31l-.23-.22c-.9-.86-.4-2.38.84-2.54l.32-.04c.51-.07.86-.55.77-1.05l-.06-.31c-.22-1.23 1.08-2.17 2.17-1.57l.28.15c.45.25 1.02.06 1.24-.4Z"/><path fill="#F9C23C" d="M9.46 17.465a5.88 5.88 0 1 0 0-11.76 5.88 5.88 0 0 0 0 11.76Z"/><path fill="#F3EEF8" d="M20.525 12.046A7.75 7.75 0 0 0 6.97 17.122 6.46 6.46 0 0 0 2 23.41c0 1.52.53 2.92 1.41 4.03A6.48 6.48 0 0 0 8.58 30h12.69c2.82 0 5.31-1.39 6.83-3.52 2.72-3.56 2.43-8.68-.86-11.89a8.97 8.97 0 0 0-6.715-2.544Z"/></svg>
